X:94
T:T046- Cossey's Jig
S:Jackson's Celebrated Irish Tunes, c 1790
Q:1/4=120
L:1/8
M:6/8
K:G
c3B3|AGA BGE|DEG G/A/BG|AGA BGE|cec BdB|AGA BGE|DEG AGA|BGGG3||\
g3edc|Bdg dBG|g2e dBG|ecAA2d|ge/f/g/e/ fd/e/f/d/|ecg dBG|\
DEG AGA|BGGG3||GBd GBd|Gce Gce|GBd GBd|ecAA3|GBd GBd|\
Gce egf|DEG AGA|BGGG3|]

